svgs/regular/user-pen.svg

<svg xmlns="http://www.w3.org/2000/svg" viewBox="0 0 640 512"><!--! Font Awesome Pro 6.0.0-alpha3 by @fontawesome - https://fontawesome.com License - https://fontawesome.com/license (Commercial License) --><path d="M496.7 295.3l72.01 72.01l-125.3 125.3c-2.514 2.516-5.713 4.223-9.195 4.922l-71.42 14.29c-6.297 1.258-11.85-4.297-10.59-10.59l14.28-71.41c.6973-3.488 2.41-6.691 4.924-9.203L496.7 295.3zM629.5 255.7l-21.1-21.11c-14.06-14.06-36.85-14.06-50.91 0l-38.13 38.14l72.01 72.01l38.13-38.13C643.5 292.5 643.5 269.7 629.5 255.7zM360.1 512c.5898 0 1.189-.0586 1.797-.1797c-1.18 .2363-2.273 .0254-3.361-.1777C359.9 511.7 360.4 512 360.1 512zM96 128c0-70.69 57.31-128 127.1-128s128 57.31 128 128c0 70.69-57.31 128-128 128S96 198.7 96 128zM144 128c0 44.11 35.89 80 80 80s80-35.89 80-80c0-44.11-35.89-80-80-80S144 83.89 144 128zM326.1 464h-277.1C56.89 400.9 110.8 352 176 352h96c33.96 0 64.67 13.49 87.6 35.14l34.1-34.1C362.1 322.7 319.3 304 272 304h-96c-97.2 0-176 78.8-176 176c0 17.67 14.33 32 32 32h289.1c-1.246-5.531-1.43-11.31-.2832-17.04L326.1 464z"/></svg>

<svg xmlns="http://www.w3.org/2000/svg" viewBox="0 0 640 512"><!-- Font Awesome Pro 6.0.0-alpha2 by @fontawesome - https://fontawesome.com License - https://fontawesome.com/license (Commercial License) --><path d="M496.689 295.312L568.697 367.32L542.312 393.703H542.307L443.385 492.613C440.871 495.129 437.672 496.836 434.189 497.535L362.77 511.82C356.473 513.078 350.922 507.523 352.18 501.234L366.461 429.82C367.158 426.332 368.871 423.129 371.385 420.617L496.689 295.312ZM629.457 255.656L608.355 234.551C594.297 220.492 571.504 220.492 557.447 234.551L519.313 272.688L591.322 344.695L629.453 306.566C643.514 292.508 643.516 269.715 629.457 255.656ZM360.973 512C361.562 512 362.162 511.941 362.77 511.82C361.59 512.057 360.496 511.846 359.408 511.643C359.939 511.742 360.414 512 360.973 512ZM96 128C96 57.307 153.307 0 224 0S352 57.307 352 128C352 198.691 294.693 256 224 256S96 198.691 96 128ZM144 128C144 172.111 179.889 208 224 208S304 172.111 304 128C304 83.887 268.111 48 224 48S144 83.887 144 128ZM326.992 464H48.994C56.895 400.945 110.84 352 176 352H272C305.957 352 336.668 365.486 359.604 387.143L393.699 353.047C362.082 322.729 319.264 304 272 304H176C78.797 304 0 382.797 0 480C0 497.672 14.326 512 32 512H321.084C319.838 506.469 319.654 500.688 320.801 494.959L326.992 464Z"/></svg>
